Newaita-dark/apps/32/com.github.timecraft.notifier.svg

<svg height="32" viewBox="0 0 32 32" width="32" xmlns="http://www.w3.org/2000/svg" xmlns:xlink="http://www.w3.org/1999/xlink"><linearGradient id="a" gradientUnits="userSpaceOnUse" x1="15.87652" x2="15.87652" y1="28.033936" y2="29.35698000003"><stop offset="0" stop-opacity=".27451"/><stop offset="1" stop-opacity="0"/></linearGradient><linearGradient id="b"><stop offset="0" stop-opacity=".313726"/><stop offset=".222222" stop-opacity=".27451"/><stop offset="1" stop-opacity="0"/></linearGradient><radialGradient id="c" cx="450.908936" cy="189.579361" gradientTransform="matrix(.00000017 -.0781325 -.140638 -.0000001 52.130648 63.595333)" gradientUnits="userSpaceOnUse" r="21.166656" xlink:href="#b"/><radialGradient id="d" cx="450.908936" cy="189.579361" gradientTransform="matrix(-.00000017 .0781325 .140638 .0000001 -20.377613 -7.527479)" gradientUnits="userSpaceOnUse" r="21.166656" xlink:href="#b"/><radialGradient id="e" cx="450.908936" cy="189.579361" gradientTransform="matrix(-.00000017 -.0781325 .140638 -.0000001 -20.377613 63.595333)" gradientUnits="userSpaceOnUse" r="21.166656" xlink:href="#b"/><radialGradient id="f" cx="450.908936" cy="189.579361" gradientTransform="matrix(.00000017 .0781325 -.140638 .0000001 52.130646 -7.527479)" gradientUnits="userSpaceOnUse" r="21.166656" xlink:href="#b"/><linearGradient id="g" gradientUnits="userSpaceOnUse" x1="10.58434899997" x2="10.58434899997" y1="28.033934" y2="2.89610500006"><stop offset="0" stop-color="#f44336"/><stop offset="1" stop-color="#ef5350"/></linearGradient><linearGradient id="h" gradientUnits="userSpaceOnUse" x1="15.910688" x2="15.910688" y1="26.71086219623" y2="5.54222143548"><stop offset="0" stop-color="#bdbdbd"/><stop offset="1" stop-color="#e0e0e0"/></linearGradient><path d="m5.953125 27.9375h19.847656v1.46875h-19.847656zm0 0" fill="url(#a)"/><path d="m25.800781 28.035156h2.644531v-1.324218h-2.644531zm0 0" fill="url(#c)"/><path d="m5.953125 28.035156h-2.644531v1.320313h2.644531zm0 0" fill="url(#d)"/><path d="m5.953125 28.035156h-2.644531v-1.324218h2.644531zm0 0" fill="url(#e)"/><path d="m25.800781 28.035156h2.644531v1.320313h-2.644531zm0 0" fill="url(#f)"/><path d="m4.628906 2.894531h22.492188c.730468 0 1.324218.59375 1.324218 1.324219v22.492188c0 .730468-.59375 1.324218-1.324218 1.324218h-22.492188c-.730468 0-1.320312-.59375-1.320312-1.324218v-22.492188c0-.730469.589844-1.324219 1.320312-1.324219zm0 0" fill="url(#g)"/><path d="m4.628906 2.894531c-.730468 0-1.320312.589844-1.320312 1.324219v.164062c0-.730468.589844-1.324218 1.320312-1.320312h22.492188c.734375-.003906 1.324218.589844 1.324218 1.320312v-.164062c0-.734375-.589843-1.324219-1.324218-1.324219zm0 0" fill="#e6e6e6" fill-opacity=".392157"/><path d="m4.628906 28.035156c-.730468 0-1.320312-.589844-1.320312-1.324218v-.164063c0 .730469.589844 1.320313 1.320312 1.320313h22.492188c.734375 0 1.324218-.589844 1.324218-1.320313v.164063c0 .734374-.589843 1.324218-1.324218 1.324218zm0 0" fill-opacity=".196078"/><path d="m74.055428-168.691922h359.840637c11.686384 0 21.185477 9.499093 21.185477 21.185477v359.840637c0 11.686384-9.499093 21.185477-21.185477 21.185477h-359.840637c-11.686384 0-21.122983-9.499093-21.122983-21.185477v-359.840637c0-11.686384 9.436599-21.185477 21.122983-21.185477zm0 0" fill="none" stroke="#212121" stroke-linecap="round" stroke-width="3" transform="matrix(.062506 0 0 .062506 0 13.438783)"/><path d="m14.585938 8.1875c-.382813 0-.6875.328125-.65625.714844l.660156 8.597656c.027344.34375.3125.609375.660156.609375h1.324219c.34375 0 .628906-.265625.65625-.609375l.660156-8.597656c.03125-.386719-.273437-.714844-.65625-.714844zm1.324218 11.246094c-.730468 0-1.324218.589844-1.324218 1.324218 0 .730469.59375 1.324219 1.324218 1.324219.734375 0 1.324219-.59375 1.324219-1.324219 0-.734374-.589844-1.324218-1.324219-1.324218zm0 0" fill="url(#h)"/><path d="m14.585938 8.1875c-.382813 0-.6875.328125-.65625.714844l.019531.269531c.078125-.277344.332031-.488281.636719-.488281h2.648437c.304687 0 .5625.210937.636719.488281l.019531-.269531c.03125-.386719-.273437-.714844-.65625-.714844zm1.324218 11.246094c-.730468 0-1.324218.589844-1.324218 1.324218 0 .085938.007812.167969.023437.246094.117187-.613281.652344-1.074218 1.300781-1.074218.648438 0 1.183594.460937 1.300782 1.074218.015624-.078125.023437-.160156.023437-.246094 0-.734374-.589844-1.324218-1.324219-1.324218zm0 0" fill="#fff" fill-opacity=".86129"/><path d="m13.960938 9.304688c-.027344.082031-.039063.167968-.03125.257812l.660156 8.601562c.027344.34375.3125.609376.660156.609376h1.324219c.34375 0 .628906-.265626.65625-.609376l.660156-8.601562c.007813-.089844-.003906-.175781-.03125-.257812l-.628906 8.195312c-.027344.34375-.3125.609375-.65625.609375h-1.324219c-.347656 0-.632812-.265625-.660156-.609375zm.667968 11.785156c-.027344.105468-.042968.214844-.042968.328125 0 .734375.59375 1.324219 1.324218 1.324219.734375 0 1.324219-.589844 1.324219-1.324219 0-.113281-.015625-.222657-.042969-.328125-.144531.570312-.664062.992187-1.28125.992187-.617187 0-1.132812-.421875-1.28125-.992187zm0 0" fill-opacity=".235294"/><path d="m233.352716-84.012509c-6.124415 0-10.99895 5.249499-10.498997 11.436408l10.561491 137.549365c.437458 5.499475 4.999523 9.749069 10.561491 9.749069h21.185477c5.499475 0 10.061539-4.249594 10.498998-9.749069l10.561491-137.549365c.499952-6.186909-4.374582-11.436408-10.498997-11.436408zm21.185477 179.920319c-11.686384 0-21.185477 9.436599-21.185477 21.185477 0 11.686384 9.499093 21.185477 21.185477 21.185477 11.748878 0 21.185477-9.499093 21.185477-21.185477 0-11.748878-9.436599-21.185477-21.185477-21.185477zm0 0" fill="none" stroke="#212121" stroke-linecap="round" stroke-linejoin="round" stroke-width="3" transform="matrix(.062506 0 0 .062506 0 13.438783)"/></svg>

<?xml version="1.0" encoding="UTF-8"?>
<svg xmlns="http://www.w3.org/2000/svg" xmlns:xlink="http://www.w3.org/1999/xlink" width="32px" height="32px" viewBox="0 0 32 32" version="1.1">
<defs>
<linearGradient id="linear0" gradientUnits="userSpaceOnUse" x1="254" y1="233.5" x2="254" y2="254.666672" gradientTransform="matrix(0.062506,0,0,0.062506,-0.00000381506,13.438785)">
<stop offset="0" style="stop-color:rgb(0%,0%,0%);stop-opacity:0.27451;"/>
<stop offset="1" style="stop-color:rgb(0%,0%,0%);stop-opacity:0;"/>
</linearGradient>
<radialGradient id="radial0" gradientUnits="userSpaceOnUse" cx="450.908936" cy="189.579361" fx="450.908936" fy="189.579361" r="21.166656" gradientTransform="matrix(0.00000017417,-0.0781325,-0.140638,-0.000000101539,52.130648,63.595333)">
<stop offset="0" style="stop-color:rgb(0%,0%,0%);stop-opacity:0.313726;"/>
<stop offset="0.222222" style="stop-color:rgb(0%,0%,0%);stop-opacity:0.27451;"/>
<stop offset="1" style="stop-color:rgb(0%,0%,0%);stop-opacity:0;"/>
</radialGradient>
<radialGradient id="radial1" gradientUnits="userSpaceOnUse" cx="450.908936" cy="189.579361" fx="450.908936" fy="189.579361" r="21.166656" gradientTransform="matrix(-0.00000017417,0.0781325,0.140638,0.000000101539,-20.377613,-7.527479)">
<stop offset="0" style="stop-color:rgb(0%,0%,0%);stop-opacity:0.313726;"/>
<stop offset="0.222222" style="stop-color:rgb(0%,0%,0%);stop-opacity:0.27451;"/>
<stop offset="1" style="stop-color:rgb(0%,0%,0%);stop-opacity:0;"/>
</radialGradient>
<radialGradient id="radial2" gradientUnits="userSpaceOnUse" cx="450.908936" cy="189.579361" fx="450.908936" fy="189.579361" r="21.166656" gradientTransform="matrix(-0.00000017417,-0.0781325,0.140638,-0.000000101539,-20.377613,63.595333)">
<stop offset="0" style="stop-color:rgb(0%,0%,0%);stop-opacity:0.313726;"/>
<stop offset="0.222222" style="stop-color:rgb(0%,0%,0%);stop-opacity:0.27451;"/>
<stop offset="1" style="stop-color:rgb(0%,0%,0%);stop-opacity:0;"/>
</radialGradient>
<radialGradient id="radial3" gradientUnits="userSpaceOnUse" cx="450.908936" cy="189.579361" fx="450.908936" fy="189.579361" r="21.166656" gradientTransform="matrix(0.00000017417,0.0781325,-0.140638,0.000000101539,52.130646,-7.527479)">
<stop offset="0" style="stop-color:rgb(0%,0%,0%);stop-opacity:0.313726;"/>
<stop offset="0.222222" style="stop-color:rgb(0%,0%,0%);stop-opacity:0.27451;"/>
<stop offset="1" style="stop-color:rgb(0%,0%,0%);stop-opacity:0;"/>
</radialGradient>
<linearGradient id="linear1" gradientUnits="userSpaceOnUse" x1="169.333328" y1="233.5" x2="169.333328" y2="-168.666656" gradientTransform="matrix(0.062506,0,0,0.062506,0,13.438783)">
<stop offset="0" style="stop-color:rgb(95.686275%,26.274511%,21.176471%);stop-opacity:1;"/>
<stop offset="1" style="stop-color:rgb(93.725491%,32.549021%,31.37255%);stop-opacity:1;"/>
</linearGradient>
<linearGradient id="linear2" gradientUnits="userSpaceOnUse" x1="960" y1="1455.118164" x2="960" y2="175.118118" gradientTransform="matrix(0.016538,0,0,0.016538,0.0342076,2.646118)">
<stop offset="0" style="stop-color:rgb(74.117649%,74.117649%,74.117649%);stop-opacity:1;"/>
<stop offset="1" style="stop-color:rgb(87.843138%,87.843138%,87.843138%);stop-opacity:1;"/>
</linearGradient>
</defs>
<g id="surface1">
<path style=" stroke:none;fill-rule:nonzero;fill:url(#linear0);" d="M 5.953125 27.9375 L 25.800781 27.9375 L 25.800781 29.40625 L 5.953125 29.40625 Z M 5.953125 27.9375 "/>
<path style=" stroke:none;fill-rule:nonzero;fill:url(#radial0);" d="M 25.800781 28.035156 L 28.445312 28.035156 L 28.445312 26.710938 L 25.800781 26.710938 Z M 25.800781 28.035156 "/>
<path style=" stroke:none;fill-rule:nonzero;fill:url(#radial1);" d="M 5.953125 28.035156 L 3.308594 28.035156 L 3.308594 29.355469 L 5.953125 29.355469 Z M 5.953125 28.035156 "/>
<path style=" stroke:none;fill-rule:nonzero;fill:url(#radial2);" d="M 5.953125 28.035156 L 3.308594 28.035156 L 3.308594 26.710938 L 5.953125 26.710938 Z M 5.953125 28.035156 "/>
<path style=" stroke:none;fill-rule:nonzero;fill:url(#radial3);" d="M 25.800781 28.035156 L 28.445312 28.035156 L 28.445312 29.355469 L 25.800781 29.355469 Z M 25.800781 28.035156 "/>
<path style=" stroke:none;fill-rule:nonzero;fill:url(#linear1);" d="M 4.628906 2.894531 L 27.121094 2.894531 C 27.851562 2.894531 28.445312 3.488281 28.445312 4.21875 L 28.445312 26.710938 C 28.445312 27.441406 27.851562 28.035156 27.121094 28.035156 L 4.628906 28.035156 C 3.898438 28.035156 3.308594 27.441406 3.308594 26.710938 L 3.308594 4.21875 C 3.308594 3.488281 3.898438 2.894531 4.628906 2.894531 Z M 4.628906 2.894531 "/>
<path style=" stroke:none;fill-rule:nonzero;fill:rgb(90.196079%,90.196079%,90.196079%);fill-opacity:0.392157;" d="M 4.628906 2.894531 C 3.898438 2.894531 3.308594 3.484375 3.308594 4.21875 L 3.308594 4.382812 C 3.308594 3.652344 3.898438 3.058594 4.628906 3.0625 L 27.121094 3.0625 C 27.855469 3.058594 28.445312 3.652344 28.445312 4.382812 L 28.445312 4.21875 C 28.445312 3.484375 27.855469 2.894531 27.121094 2.894531 Z M 4.628906 2.894531 "/>
<path style=" stroke:none;fill-rule:nonzero;fill:rgb(0%,0%,0%);fill-opacity:0.196078;" d="M 4.628906 28.035156 C 3.898438 28.035156 3.308594 27.445312 3.308594 26.710938 L 3.308594 26.546875 C 3.308594 27.277344 3.898438 27.867188 4.628906 27.867188 L 27.121094 27.867188 C 27.855469 27.867188 28.445312 27.277344 28.445312 26.546875 L 28.445312 26.710938 C 28.445312 27.445312 27.855469 28.035156 27.121094 28.035156 Z M 4.628906 28.035156 "/>
<path style="fill:none;stroke-width:3;stroke-linecap:round;stroke-linejoin:miter;stroke:rgb(12.941177%,12.941177%,12.941177%);stroke-opacity:1;stroke-miterlimit:4;" d="M 74.055428 -168.691922 L 433.896065 -168.691922 C 445.582449 -168.691922 455.081542 -159.192829 455.081542 -147.506445 L 455.081542 212.334192 C 455.081542 224.020576 445.582449 233.519669 433.896065 233.519669 L 74.055428 233.519669 C 62.369044 233.519669 52.932445 224.020576 52.932445 212.334192 L 52.932445 -147.506445 C 52.932445 -159.192829 62.369044 -168.691922 74.055428 -168.691922 Z M 74.055428 -168.691922 " transform="matrix(0.062506,0,0,0.062506,0,13.438783)"/>
<path style=" stroke:none;fill-rule:nonzero;fill:url(#linear2);" d="M 14.585938 8.1875 C 14.203125 8.1875 13.898438 8.515625 13.929688 8.902344 L 14.589844 17.5 C 14.617188 17.84375 14.902344 18.109375 15.25 18.109375 L 16.574219 18.109375 C 16.917969 18.109375 17.203125 17.84375 17.230469 17.5 L 17.890625 8.902344 C 17.921875 8.515625 17.617188 8.1875 17.234375 8.1875 Z M 15.910156 19.433594 C 15.179688 19.433594 14.585938 20.023438 14.585938 20.757812 C 14.585938 21.488281 15.179688 22.082031 15.910156 22.082031 C 16.644531 22.082031 17.234375 21.488281 17.234375 20.757812 C 17.234375 20.023438 16.644531 19.433594 15.910156 19.433594 Z M 15.910156 19.433594 "/>
<path style=" stroke:none;fill-rule:nonzero;fill:rgb(100%,100%,100%);fill-opacity:0.86129;" d="M 14.585938 8.1875 C 14.203125 8.1875 13.898438 8.515625 13.929688 8.902344 L 13.949219 9.171875 C 14.027344 8.894531 14.28125 8.683594 14.585938 8.683594 L 17.234375 8.683594 C 17.539062 8.683594 17.796875 8.894531 17.871094 9.171875 L 17.890625 8.902344 C 17.921875 8.515625 17.617188 8.1875 17.234375 8.1875 Z M 15.910156 19.433594 C 15.179688 19.433594 14.585938 20.023438 14.585938 20.757812 C 14.585938 20.84375 14.59375 20.925781 14.609375 21.003906 C 14.726562 20.390625 15.261719 19.929688 15.910156 19.929688 C 16.558594 19.929688 17.09375 20.390625 17.210938 21.003906 C 17.226562 20.925781 17.234375 20.84375 17.234375 20.757812 C 17.234375 20.023438 16.644531 19.433594 15.910156 19.433594 Z M 15.910156 19.433594 "/>
<path style=" stroke:none;fill-rule:nonzero;fill:rgb(0%,0%,0%);fill-opacity:0.235294;" d="M 13.960938 9.304688 C 13.933594 9.386719 13.921875 9.472656 13.929688 9.5625 L 14.589844 18.164062 C 14.617188 18.507812 14.902344 18.773438 15.25 18.773438 L 16.574219 18.773438 C 16.917969 18.773438 17.203125 18.507812 17.230469 18.164062 L 17.890625 9.5625 C 17.898438 9.472656 17.886719 9.386719 17.859375 9.304688 L 17.230469 17.5 C 17.203125 17.84375 16.917969 18.109375 16.574219 18.109375 L 15.25 18.109375 C 14.902344 18.109375 14.617188 17.84375 14.589844 17.5 Z M 14.628906 21.089844 C 14.601562 21.195312 14.585938 21.304688 14.585938 21.417969 C 14.585938 22.152344 15.179688 22.742188 15.910156 22.742188 C 16.644531 22.742188 17.234375 22.152344 17.234375 21.417969 C 17.234375 21.304688 17.21875 21.195312 17.191406 21.089844 C 17.046875 21.660156 16.527344 22.082031 15.910156 22.082031 C 15.292969 22.082031 14.777344 21.660156 14.628906 21.089844 Z M 14.628906 21.089844 "/>
<path style="fill:none;stroke-width:3;stroke-linecap:round;stroke-linejoin:round;stroke:rgb(12.941177%,12.941177%,12.941177%);stroke-opacity:1;stroke-miterlimit:4;" d="M 233.352716 -84.012509 C 227.228301 -84.012509 222.353766 -78.76301 222.853719 -72.576101 L 233.41521 64.973264 C 233.852668 70.472739 238.414733 74.722333 243.976701 74.722333 L 265.162178 74.722333 C 270.661653 74.722333 275.223717 70.472739 275.661176 64.973264 L 286.222667 -72.576101 C 286.722619 -78.76301 281.848085 -84.012509 275.72367 -84.012509 Z M 254.538193 95.90781 C 242.851809 95.90781 233.352716 105.344409 233.352716 117.093287 C 233.352716 128.779671 242.851809 138.278764 254.538193 138.278764 C 266.287071 138.278764 275.72367 128.779671 275.72367 117.093287 C 275.72367 105.344409 266.287071 95.90781 254.538193 95.90781 Z M 254.538193 95.90781 " transform="matrix(0.062506,0,0,0.062506,0,13.438783)"/>
</g>
</svg>
